!!!!SEGMENT: pl-wnifc--6435-n--002_damse-jozef--polonez-no-2.krn
!!!cenid: 18xx:3940
!!!COM: Damse, Józef
!!!COM-rismID: pe30008765
!!!CDT: 1789-1852
!!!CNT:
!!!OTL: Polonez No. 2
!!!PDT: 1825
!!!AGN:
!!!SMS-siglum: PL-Wnifc
!!!SMS-shelfmark: 6435/n
!!!SMS-shelfwork: 002 W
!!!SMS-variant:
!!!SMS-altvar:
!!!NIFC-rismSourceID: 1001011499
!!!NIFC-rismChildID: 1001011569
!!!NIFC-islandoraID: nifc:212718
!!!URL-pdf-islandora: https://repozytorium.nifc.pl/islandora/object/nifc:212718/datastream/PDF/view
!!!URL-scan: https://polish.musicsources.pl/pl/lokalizacje/galeria/druki-muzyczne/16854 @EN{Scan on Polish Music Sources Website} @PL{Skany w portalu Dziedzictwo Muzyki Polskiej w otwartym dostępie}
!!!IIIF:
!!!ONB-nifc: UWAGA: str. 4-5
!!!AIN: 1 piano
!!!key: B-
!!!OMD: Polonez N.º 2.
**kern	**kern	**dynam
*part1	*part1	*part1
*staff2	*staff1	*
*>[A,B,B,C,B,D,D,E,D]	*>[A,B,B,C,B,D,D,E,D]	*
*>A	*>A	*>A
*I"Piano=Forte.	*I"Piano=Forte.	*
*mI"Pianoforte	*mI"Pianoforte	*
*I'	*I'	*
*mI'pf	*mI'pf	*
*Ipiano	*Ipiano	*
*ICklav	*ICklav	*
*clefF4	*clefG2	*
*k[b-e-]	*k[b-e-]	*
*B-:	*B-:	*
*M3/4	*M3/4	*
=1	=1	=1
!	!	!LO:DY:rj
4BB- 4BBB-/	(16A/LL	f
.	16B-/)	.
.	16B-'/	.
.	16B-'/JJ	.
4D 4DD/	(16B-/LL	.
.	16d/)	.
.	16d'/	.
.	16d'/JJ	.
!	!LO:SIC:o=16d/LL	!
4F 4FF/	(16dLL	.
!	!LO:SIC:o=16f/	!
.	16f)	.
!	!LO:SIC:o=16f/	!
.	16f'	.
!	!LO:SIC:o=16f/JJ	!
.	16f'JJ	.
=2	=2	=2
!	!LO:SIC:o=16f/LL	!
4B- 4BB-\	(16fLL	.
!	!LO:SIC:o=16b-/	!
.	16b-)	.
!	!LO:SIC:o=16b-/	!
.	16b-'	.
!	!LO:SIC:o=16b-/JJ	!
.	16b-'JJ	.
!	!LO:SIC:o=16b-\LL	!
4d 4D\	(16b-LL	.
!	!LO:SIC:o=16dd\	!
.	16dd)	.
!	!LO:SIC:o=16dd\	!
.	16dd'	.
!	!LO:SIC:o=16dd\JJ	!
.	16dd'JJ	.
!	!LO:SIC:o=16dd\LL	!
4f 4F\	(16ddLL	.
!	!LO:SIC:o=16ff\	!
.	16ff)	.
!	!LO:SIC:o=16ff\	!
.	16ff'	.
!	!LO:SIC:o=16ff\JJ	!
.	16ff'JJ	.
=3	=3	=3
!	!LO:SIC:o=16ff/LL	!
4b-> 4B-\	(>16ff/LL	.
!	!LO:SIC:o=16bb-/	!
.	16bb-/)	.
!	!LO:SIC:o=16bb-/	!
.	16bb-/'	.
!	!LO:SIC:o=16bb-/JJ	!
.	16bb-'/JJ	.
16B-\LL	16bb-\LL	.
16A\	16aa\	.
16G\	16gg\	.
16F\JJ	16ff\JJ	.
16E-\LL	16ee-\LL	.
16D\	16dd\	.
16C\	16cc\	.
16BB-\JJ	16b-\JJ	.
=4	=4	=4
4F 4FF/	8ffL 8cc 8a\	.
.	16ff\L	.
.	16ff\JJ	.
8r	8ff\L	.
8e-L 8E-\	8aa 8a\	.
8d 8D\	8bb- 8b-\	.
8B-J 8BB-\	8dddJ 8dd\	.
=5	=5	=5
4F 4FF/	8fffL 8ff\	.
.	16ff\L	.
.	16ff\JJ	.
8r	8ff\L	.
8e-L 8E-\	8aa 8a\	.
8d 8D\	8bb- 8ff 8b-\	.
8B-J 8BB-\	8dddJ 8dd\	.
=6	=6	=6
8FL 8C 8FF/	8fffL 8ff\	.
16FL 16C 16FF/	16ffL 16cc 16a\	.
16FJJ 16C 16FF/	16ffJJ 16cc 16a\	.
8FL 8C 8FF/	8ffL 8cc 8a\	.
8FJ 8C 8FF/	8ffJ 8cc 8a\	.
4F 4C 4FF/	4ff 4cc 4a\	.
!LO:TX:a:t=[segno]	!LO:TX:b:t=[segno]	!
!LO:TX:b:t=[segno]	!LO:TX:a:t=[segno]	!
!!LO:LB:g=original
=7||	=7||	=7||
*>B	*>B	*>B
*tremolo	*	*
!	!LO:MO:mod=!LO&colon;TX&colon;i&colon;t=dolce	!
!	!LO:TX:a:i:t=dolce.	!
8fL 8d 8B-\	4.ff\	p
8f 8d 8B-\	.	.
8f 8d 8B-\	.	.
8f 8d 8B-\	16een\LL	.
.	16ff\JJ	.
8f 8d 8B-\	16ee\LL	.
.	16ff\	.
8fJ 8d 8B-\	16gg\	.
.	16ff\JJ	.
=8	=8	=8
8fL 8c 8A\	16een\LL	.
.	16ff\	.
8f 8c 8A\	16gg\	.
.	16ff\JJ	.
8f 8c 8A\	8cc\L	.
8f 8c 8A\	8ff\	.
8f 8c 8A\	8gg\	.
8fJ 8c 8A\	8aa\J	.
=9	=9	=9
8dL 8B- 8G\	4.bb-\	.
8d 8B- 8G\	.	.
8d 8B- 8G\	.	.
8d 8B- 8G\	16aa\LL	.
.	16gg\JJ	.
8d 8B- 8G\	16ff\LL	.
.	16ee-X\	.
8dJ 8B- 8G\	16dd\	.
.	16cc#X\JJ	.
=10	=10	=10
8dL 8c 8A 8F#X\	16cc#X\LL	.
.	16dd\	.
8d 8c 8A 8F#\	16ee-X\	.
.	16dd\JJ	.
8d 8c 8A 8F#\	4.dd\	.
8d 8c 8A 8F#\	.	.
8d 8c 8A 8F#\	.	.
8dJ 8c 8A 8F#\	8ccn\	.
=11	=11	=11
8dL 8Bn 8A- 8Fn\	4.bnt\	.
8d 8B 8A- 8F\	.	.
8d 8B 8A- 8F\	.	.
*	*Xtuplet	*
8d 8B 8A- 8F\	24cc\LL	.
.	24dd\	.
.	24ee-\JJ	.
8d 8B 8A- 8F\	16ff\LL	.
.	16gg\	.
8dJ 8B 8A- 8F\	16aa-X\	.
.	16gg\JJ	.
=12	=12	=12
8cL 8G 8E-X\	4.gg\	.
8c 8G 8E-\	.	.
8c 8G 8E-\	.	.
8c 8G 8E-\	16ff\LL	.
.	16ee-\JJ	.
8c 8G 8E-\	16dd\LL	.
.	16cc\	.
8cJ 8G 8E-\	16bn\	.
.	16cc\JJ	.
=13	=13	=13
8d-XL 8B- 8En\	4ddd-X\	.
8d- 8B- 8E\	.	.
8d- 8B- 8E\	12ddd-\L	.
.	12bb-\	.
8d-J 8B- 8E\	.	.
.	12gg\J	.
*Xtremolo	*	*
8d-L 8G 8E\	12een\L	.
.	12dd-X\	.
8d-J 8G 8E\	.	.
.	12b-\J	.
=14	=14	=14
2c 2An 2F\	16an\LL	.
.	16b-\	.
.	16cc\	.
.	16ddn\JJ	.
.	16ee-\LL	.
.	16ff\	.
.	16gg\	.
.	16ff\JJ	.
4r	16aan\LL	.
.	16gg\	.
.	16ff\	.
.	16ee-\JJ	.
!!LO:LB:g=original
=15	=15	=15
16BB-/LL	16dd\LL	ff
16F/	16ff\	.
16D/	16een\	.
16F/JJ	16ff\JJ	.
*rep	*	*
16BB-/LL	16gg\LL	.
16F/	16ff\	.
16D/	16ee\	.
16F/JJ	16ff\JJ	.
*Xrep	*	*
*rep	*	*
16BB-/LL	16bb-\LL	.
16F/	16ff\	.
16D/	16dd\	.
16F/JJ	16b-\JJ	.
*Xrep	*	*
=16	=16	=16
16FF/LL	16ddd\LL	.
16F/	16ccc\	.
16C/	16aa\	.
16F/JJ	16ff\JJ	.
*rep	*rep	*
16FF/LL	16ddd\LL	.
16F/	16ccc\	.
16C/	16aa\	.
16F/JJ	16ff\JJ	.
*Xrep	*Xrep	*
*rep	*rep	*
16FF/LL	16ddd\LL	.
16F/	16ccc\	.
16C/	16aa\	.
16F/JJ	16ff\JJ	.
*Xrep	*Xrep	*
=17	=17	=17
16BB-/LL	16dd\LL	.
16F/	16ff\	.
16D/	16een\	.
16F/JJ	16ff\JJ	.
*rep	*	*
16BB-/LL	16gg\LL	.
16F/	16ff\	.
16D/	16ee\	.
16F/JJ	16ff\JJ	.
*Xrep	*	*
*rep	*	*
16BB-/LL	16bb-\LL	.
16F/	16ff\	.
16D/	16dd\	.
16F/JJ	16b-\JJ	.
*Xrep	*	*
=18	=18	=18
16FF/LL	16ddd\LL	.
16F/	16ccc\	.
16C/	16aa\	.
16F/JJ	16ff\JJ	.
*rep	*rep	*
16FF/LL	16ddd\LL	.
16F/	16ccc\	.
16C/	16aa\	.
16F/JJ	16ff\JJ	.
*Xrep	*Xrep	*
*rep	*rep	*
16FF/LL	16ddd\LL	.
16F/	16ccc\	.
16C/	16aa\	.
16F/JJ	16ff\JJ	.
*Xrep	*Xrep	*
=19	=19	=19
16D\LL	8bb-\	.
16B-\	.	.
!	!LO:N:vis=8	!
16F\	8.ddd\L	.
16B-\JJ	.	.
*rep	*	*
16D\LL	.	.
16B-\	16ccc\L	.
16F\	16bb-\	.
16B-\JJ	16aa\JJ	.
*Xrep	*	*
*rep	*	*
16D\LL	16gg\LL	.
16B-\	16ff\	.
16F\	16ee-X\	.
16B-\JJ	16dd\JJ	.
*Xrep	*	*
=20	=20	=20
16E-\LL	16cc\LL	.
16c\	16dd\	.
16G\	16ee-\	.
16c\JJ	16ff\JJ	.
*rep	*	*
16E-\LL	16gg\LL	.
16c\	16aa\	.
16G\	16ccc\	.
16c\JJ	16bb-\JJ	.
*Xrep	*	*
*rep	*	*
16E-\LL	16aa\LL	.
16c\	16gg\	.
16G\	16ff\	.
16c\JJ	16ee-\JJ	.
*Xrep	*	*
=21	=21	=21
16F\LL	16dd\LL	.
16d\	16ddd\	.
16B-\	16bb-\	.
16d\JJ	16ff\JJ	.
!!LO:LB:g=original
=-	=-	=-
*rep	*	*
16F\LL	16dd\LL	.
16d\	16bb-\	.
16B-\	16ff\	.
16d\JJ	16dd\JJ	.
*Xrep	*	*
*rep	*	*
16F\LL	16b-\LL	.
16d\	16ff\	.
16B-\	16dd\	.
16d\JJ	16b-\JJ	.
*Xrep	*	*
=22	=22	=22
8F\L	16a\LL	.
.	16gg\	.
8e-J 8c 8F\	16ff\	.
.	16a\JJ	.
8r	4cc\	.
8e- 8c 8F\	.	.
4d 4B-\	8b-\	.
.	8r	.
=23:|!|:	=23:|!|:	=23:|!|:
*>C	*>C	*>C
*tremolo	*	*
8AL 8F\	16ff\LL	.
.	16aa\	.
8C\	16aa\	.
.	16aa\JJ	.
.	8qbb-/	.
8A 8F\	16aa\LL	.
.	16gg\	.
8C\	16aa\	.
.	16bb-\JJ	.
.	8qddd/	.
8A 8F\	16ccc\LL	.
.	16bbn\	.
8C\J	16ccc\	.
.	16ddd\JJ	.
=24	=24	=24
8AL 8F\	8.ccc\L	.
8C\	.	.
.	16aa\Jk	.
8A 8F\	8ff\L	.
8C\	16bb-\L	.
.	16aa\JJ	.
8A 8F\	16gg\LL	.
.	16ff\	.
8C\J	16een\	.
.	16dd\JJ	.
=25	=25	=25
8B-L 8G\	16cc\LL	.
.	16een\	.
8C\	16ee\	.
.	16ee\JJ	.
.	8qff/	.
8B- 8G\	16ee\LL	.
.	16dd\	.
8C\	16ee\	.
.	16ff\JJ	.
.	8qaa/	.
8B- 8G\	16gg\LL	.
.	16ff#X\	.
8C\J	16gg\	.
.	16aa\JJ	.
=26	=26	=26
8B-L 8G\	8.bb-\L	.
8C\	.	.
.	16gg\Jk	.
8B- 8G\	8een\L	.
8C\	16gg\L	.
.	16ff\JJ	.
8B- 8G\	16ee\LL	.
.	16dd\	.
8C\J	16cc\	.
.	16b-\JJ	.
=27	=27	=27
8AL 8F\	8a\L	.
8c\	8cc\	.
8A 8F\	8ff\	.
8c\	8cc\	.
8A 8F\	8aa\	.
8c\J	8ff\J	.
!!LO:LB:g=original
=28	=28	=28
8GL 8En\	16bb-\LL	.
.	16aa\	.
8c\	16bb-\	.
.	16ccc\JJ	.
8G 8E\	16bb-\LL	.
.	16aa\	.
8c\J	16gg\	.
.	16ff\JJ	.
*Xtremolo	*	*
8B-L 8G\	16een\LL	.
.	16dd\	.
8c\J	16cc\	.
.	16b-\JJ	.
=29	=29	=29
*tremolo	*	*
8AL 8F\	16a/LL	.
.	16f/	.
8c\	16a/	.
.	16cc/JJ	.
8A 8F\	16ff\LL	.
.	16a\	.
8c\	16cc\	.
.	16ff\JJ	.
8A 8F\	8.aa\L	.
8c\J	.	.
.	16ff\Jk	.
=30	=30	=30
8GL 8En\	16bb-\LL	.
.	16ccc\	.
8c\	16ddd\	.
.	16ccc\JJ	.
8G 8E\	16bb-\LL	.
.	16aa\	.
8c\J	16gg\	.
.	16ff\JJ	.
*Xtremolo	*	*
8B-L 8G\	16een\LL	.
.	16dd\	.
8c\J	16cc\	.
.	16b-\JJ	.
=31	=31	=31
8c 8A 8F\	12a\L	.
.	12aa\	.
8r	.	.
.	12ff\J	.
8c 8A 8F\	12cc\L	.
.	12aa\	.
8r	.	.
.	12ff\J	.
8c 8G 8En 8C\	12cc\L	.
.	12bb-\	.
8r	.	.
.	12gg\J	.
=32	=32	=32
8c 8A 8F\	12cc\L	.
.	12aa\	.
8r	.	.
.	12ff\J	.
8c 8A 8F\	12cc\L	.
.	12aa\	.
8r	.	.
.	12ff\J	.
8c 8G 8En 8C\	12cc\L	.
.	12bb-\	.
8r	.	.
.	12gg\J	.
=33	=33	=33
[2.c 2.A 2.F\	16ff\LL	.
.	16eee-X\	.
.	16eee-\	.
.	16ddd\JJ	.
.	16ddd\LL	.
.	16ccc\	.
.	16ccc\	.
.	16bb-\JJ	.
.	16bb-\LL	.
.	16aa\	.
.	16bb-\	.
.	16gg\JJ	.
=34	=34	=34
2c] 2A 2F\	16gg\LL	.
.	16ff\	.
.	16ff\	.
!	!LO:TX:b:i:t=Dal Segno	!
.	16ee-X\JJ	.
.	16ee-\LL	.
.	16dd\	.
.	16dd\	.
.	16cc\JJ	.
4r	16cc\LL	.
.	16b-\	.
.	16b-\	.
.	16a\JJ	.
!	!LO:TX:a:t=[segno]	!
!LO:TX:b:t=[segno]	!LO:TX:b:t=[segno]	!
!!LO:PB:g=original
=35||	=35||	=35||
!!!OMD: Trio.
*>D	*>D	*>D
*k[b-e-a-]	*k[b-e-a-]	*
*M3/4	*M3/4	*
*tremolo	*	*
!	!LO:N:vis=4	!
8A-L 8F\	4.bb-\	.
8BB-\	.	.
8A- 8F\	.	.
8BB-\	16ff\LL	.
.	16gg\JJ	.
.	6qbb-/	.
8A- 8F\	16aa-\LL	.
.	16gg\	.
8BB-\J	16aa-\	.
.	16ff\JJ	.
=36	=36	=36
8GL 8E-\	16gg\LL	.
.	16bb-\JJ	.
8BB-\	4ee-\	.
8G 8E-\	.	.
8BB-\	16aa-\LL	.
.	16gg\JJ	.
8G 8E-\	16ff\LL	.
.	16ee-\	.
8BB-\J	16dd\	.
.	16cc\JJ	.
=37	=37	=37
8A-L 8F\	8b-\L	.
8BB-\	16dd\L	.
.	16ff\JJ	.
8A- 8F\	8b-\L	.
8BB-\	16dd\L	.
.	16ff\JJ	.
8A- 8F\	16ee-\LL	.
.	16dd\	.
8BB-\J	16cc\	.
.	16b-\JJ	.
=38	=38	=38
!	!LO:TX:t=P:problem=mixed beam	!
8GL 8E-\	16ee-\LL	.
.	16e-/	.
8BB-\	16g/	.
.	16b-/JJ	.
8G 8E-\	16ee-\LL	.
.	16g\	.
8BB-\	16b-\	.
.	16ee-\JJ	.
8G 8E-\	16gg\LL	.
.	16b-\	.
8BB-\J	16ee-\	.
.	16gg\JJ	.
=39	=39	=39
8A-L 8F\	8bb-\	.
8BB-\	4bb-\	.
8A- 8F\	.	.
8BB-\	16ff\LL	.
.	16gg\JJ	.
.	8qbb-/	.
8A- 8F\	16aa-\LL	.
.	16gg\	.
8BB-\J	16aa-\	.
.	16ff\JJ	.
=40	=40	=40
8GL 8E-\	16gg\LL	.
.	16bb-\JJ	.
8BB-\	4ee-\	.
8G 8E-\	.	.
8BB-\	16aa-\LL	.
.	16gg\JJ	.
8G 8E-\	16ff\LL	.
.	16ee-\	.
8BB-\J	16dd\	.
.	16cc\JJ	.
!!LO:LB:g=original
=41	=41	=41
8A-L 8F\	8b-\L	.
8BB-\	16dd\L	.
.	16ff\JJ	.
8A- 8F\	8b-\L	.
8BB-\	16dd\L	.
.	16ff\JJ	.
8A- 8F\	16ee-\LL	.
.	16dd\	.
8BB-\J	16cc\	.
.	16b-\JJ	.
*Xtremolo	*	*
=42	=42	=42
8GL 8E-\	16ee-\LL	.
.	16gg\	.
8A-J 8F 8BB-\	16bb-\	.
.	16dd\JJ	.
8r	4ff\	.
8A- 8F 8BB-\	.	.
4G 4E-\	8ee-\	.
.	8r	.
=43:|!|:	=43:|!|:	=43:|!|:
*>E	*>E	*>E
!	!	!LO:DY:rj
16GG\LL	16gg\LL	f
16G\	16bn\	.
16D\	16dd\	.
16G\JJ	16gg\JJ	.
*rep	*	*
16GG\LL	16bbn\LL	.
16G\	16dd\	.
16D\	16gg\	.
16G\JJ	16bb\JJ	.
*Xrep	*	*
*rep	*	*
16GG\LL	16ddd\LL	.
16G\	16gg\	.
16D\	16bb\	.
16G\JJ	16ddd\JJ	.
*Xrep	*	*
=44	=44	=44
16GG\LL	4.fff\	.
16G\	.	.
16D\	.	.
16G\JJ	.	.
*rep	*	*
16GG\LL	.	.
16G\	.	.
16D\	24ddd\LL	.
.	24bbn\	.
16G\JJ	.	.
.	24gg\JJ	.
*Xrep	*	*
*rep	*	*
16GG\LL	8aa-X\L	.
16G\	.	.
16D\	8gg\J	.
16G\JJ	.	.
*Xrep	*	*
=45	=45	=45
!	!LO:TX:t=P:problem=mixed beam	!
16C\LL	16ccc\LL	.
16G\	16c/	.
16E-X\	16e-/	.
16G\JJ	16g/JJ	.
*rep	*	*
16C\LL	16cc/LL	.
16G\	16e-/	.
16E-\	16g/	.
16G\JJ	16a-/JJ	.
*Xrep	*	*
*rep	*	*
16C\LL	16ee-/LL	.
16G\	16g/	.
16E-\	16cc/	.
16G\JJ	16ee-/JJ	.
*Xrep	*	*
=46	=46	=46
16C\LL	8gg\	.
16G\	.	.
16E-X\	4gg\	.
16G\JJ	.	.
*rep	*	*
16C\LL	.	.
16G\	.	.
16E-\	16aa-X\LL	.
16G\JJ	16gg\JJ	.
*Xrep	*	*
*rep	*	*
16C\LL	16ff\LL	.
16G\	16ee-X\	.
16E-\	16dd\	.
16G\JJ	16cc\JJ	.
*Xrep	*	*
=47	=47	=47
16FF\LL	16ff\LL	.
16F\	16an\	.
16C\	16cc\	.
16F\JJ	16ff\JJ	.
*rep	*	*
16FF\LL	16aan\LL	.
16F\	16cc\	.
16C\	16ff\	.
16F\JJ	16aa\JJ	.
*Xrep	*	*
*rep	*	*
16FF\LL	16ccc\LL	.
16F\	16ff\	.
16C\	16aa\	.
16F\JJ	16ccc\JJ	.
*Xrep	*	*
!!LO:LB:g=original
=48	=48	=48
16FF\LL	4.eee-X\	.
16F\	.	.
16C\	.	.
16F\JJ	.	.
*rep	*	*
16FF\LL	.	.
16F\	.	.
16C\	24ccc\LL	.
.	24aan\	.
16F\JJ	.	.
.	24ff\JJ	.
*Xrep	*	*
*rep	*	*
16FF\LL	8gg-X\L	.
16F\	.	.
16C\	8ff\J	.
16F\JJ	.	.
*Xrep	*	*
=49	=49	=49
!	!LO:TX:t=P:problem=mixed beam	!
16BB-\LL	16bb-\LL	.
16F\	16B-/	.
16D\	16d/	.
16F\JJ	16f/JJ	.
*rep	*	*
16BB-\LL	16b-/LL	.
16F\	16d/	.
16D\	16f/	.
16F\JJ	16b-/JJ	.
*Xrep	*	*
*rep	*	*
16BB-\LL	16dd/LL	.
16F\	16f/	.
16D\	16b-/	.
16F\JJ	16dd/JJ	.
*Xrep	*	*
=50	=50	=50
16BB-\LL	16gg\LL	.
16F\	16ff\	.
16D\	16een\	.
16F\JJ	16ff\JJ	.
*rep	*	*
16BB-\LL	16ee\LL	.
16F\	16ff\	.
16D\	16gg\	.
16F\JJ	16ff\JJ	.
*Xrep	*	*
*rep	*	*
16BB-\LL	16ee-X\LL	.
16F\	16dd\	.
16D\	16cc\	.
16F\JJ	16b-\JJ	.
*Xrep	*	*
!	!LO:TX:b:i:t=Trio Da Capo.	!
==	==	==
*-	*-	*-
!!!system-decoration: {(*)}
!!!RDF**kern: > = above
!!!RDF**kern: < = below
!!!ENC: Filip Voros
!!!END: 2022-07-27
!!!ENC: Andrzej Kubiczek
!!!END: 2022-08-24
!!!ENC-mod: Marta Lawrence
!!!END-mod: 2023-08-16
!!!filter-modern: sic -sq | shed -e "s/LO:DY:(a|b|rj)/LO:dy:$1/L" | shed -e "s/^(X?)rep$/$1REP/I" | | shed -e "s/TX(.*):t=P:/tx$1:t=P:/LG"| modori -m
!!!YEC: Copyright 2022 Narodowy Instytut Fryderyka Chopina (https://polishscores.org)
!!!YEM: License CC-BY-4.0 (https://creativecommons.org/licenses/by/4.0)
